static/img/logo.svg

<?xml version="1.0"?>
<svg width="100" height="100" xmlns="http://www.w3.org/2000/svg" xmlns:svg="http://www.w3.org/2000/svg">

 <g class="layer">
  <title>Layer 1</title>
  <g id="svg_2">
   <g fill="#FFFFFF" id="svg_1" transform="matrix(1.27589, 0, 0, 1.27589, -13.7619, -14.1636)">
    <svg id="svg_3" viewBox="0 0 100 100" x="0px" xmlns="http://www.w3.org/2000/svg" xmlns:xlink="http://www.w3.org/1999/xlink" y="0px">
     <g id="svg_4">
      <path d="m84.8,12.7l-50.5,0l0,5.8l30.7,0l0,11.7l-32.7,0c-1.6,0 -2.9,1.3 -2.9,2.9l0,35.4c0,1.6 1.3,2.9 2.9,2.9l14.9,0c1.6,0 2.9,-1.3 2.9,-2.9c0,-1.6 -1.3,-2.9 -2.9,-2.9l-12,0l0,-29.7l32.8,0c1.6,0 2.9,-1.3 2.9,-2.9l0,-14.6l11.1,0l0,63.5l-3.7,0l0,5.8l6.5,0c1.6,0 2.9,-1.3 2.9,-2.9l0,-69.2c0,-1.6 -1.3,-2.9 -2.9,-2.9z" id="svg_5"/>
      <path d="m71.9,47.3l-26.6,0c-1.6,0 -2.9,1.3 -2.9,2.9c0,1.6 1.3,2.9 2.9,2.9l11.9,0l0,28.8l-38.8,0l0,-63.5l5.2,0l0,-5.8l-8.1,0c-1.6,0 -2.9,1.3 -2.9,2.9l0,69.2c0,1.6 1.3,2.9 2.9,2.9l52.7,0l0,-5.8l-5.4,0l0,-28.7l9,0c1.6,0 2.9,-1.3 2.9,-2.9c0.1,-1.6 -1.2,-2.9 -2.8,-2.9z" id="svg_6"/>
     </g>
    </svg>
   </g>
  </g>
 </g>
</svg>

<svg xmlns="http://www.w3.org/2000/svg" xmlns:xlink="http://www.w3.org/1999/xlink" width="100" height="100" viewBox="0 0 100 100"><g><g transform="translate(50 50) scale(0.69 0.69) rotate(0) translate(-50 -50)" style="fill:#FFFFFF"><svg fill="#FFFFFF" xmlns="http://www.w3.org/2000/svg" xmlns:xlink="http://www.w3.org/1999/xlink" version="1.1" x="0px" y="0px" viewBox="0 0 100 100" style="enable-background:new 0 0 100 100;" xml:space="preserve"><g><path d="M84.8,12.7H34.3v5.8H65v11.7H32.3c-1.6,0-2.9,1.3-2.9,2.9v35.4c0,1.6,1.3,2.9,2.9,2.9h14.9c1.6,0,2.9-1.3,2.9-2.9   c0-1.6-1.3-2.9-2.9-2.9H35.2V35.9h32.8c1.6,0,2.9-1.3,2.9-2.9V18.4h11.1v63.5h-3.7v5.8h6.5c1.6,0,2.9-1.3,2.9-2.9V15.6   C87.7,14,86.4,12.7,84.8,12.7z"></path><path d="M71.9,47.3H45.3c-1.6,0-2.9,1.3-2.9,2.9c0,1.6,1.3,2.9,2.9,2.9h11.9v28.8H18.4V18.4h5.2v-5.8h-8.1c-1.6,0-2.9,1.3-2.9,2.9   v69.2c0,1.6,1.3,2.9,2.9,2.9h52.7v-5.8h-5.4V53.1h9c1.6,0,2.9-1.3,2.9-2.9C74.8,48.6,73.5,47.3,71.9,47.3z"></path></g></svg></g></g></svg>
